theme/img/business/txt_o_1.svg

<svg width="78" height="84" viewBox="0 0 78 84" fill="none" xmlns="http://www.w3.org/2000/svg">
<path d="M39.375 0C47.0625 0 53.875 1.79688 59.8125 5.39062C65.5625 8.85938 69.9219 13.6094 72.8906 19.6406C75.9844 25.9531 77.5312 33.1875 77.5312 41.3438C77.5312 48.1875 76.3281 54.6562 73.9219 60.75C72.1094 65.3438 69.4062 69.4375 65.8125 73.0312C58.8125 80 49.7812 83.4844 38.7188 83.4844C33 83.4844 27.5781 82.4531 22.4531 80.3906C15.5781 77.6406 10.1562 72.9688 6.1875 66.375C4.03125 62.8125 2.40625 58.5781 1.3125 53.6719C0.4375 49.7969 0 45.8125 0 41.7188C0 34.8125 1.1875 28.3281 3.5625 22.2656C5.28125 17.8281 7.89062 13.8906 11.3906 10.4531C18.4531 3.48438 27.7812 0 39.375 0ZM38.5312 16.5C33.7812 16.5 29.7656 18.125 26.4844 21.375C24.5469 23.3125 23.125 25.5 22.2188 27.9375C20.6562 32.1875 19.875 36.7344 19.875 41.5781C19.875 46.4844 20.6719 51.0625 22.2656 55.3125C23.1719 57.75 24.625 59.9688 26.625 61.9688C29.8125 65.2188 33.875 66.8438 38.8125 66.8438C43.6875 66.8438 47.6875 65.25 50.8125 62.0625C52.75 60.125 54.2031 57.9219 55.1719 55.4531C56.7656 51.2031 57.5625 46.6719 57.5625 41.8594C57.5625 36.7656 56.7656 32.0781 55.1719 27.7969C53.7969 24.0156 51.3906 21.0781 47.9531 18.9844C45.2969 17.3281 42.1562 16.5 38.5312 16.5Z" fill="url(#paint0_linear_194_116)"/>
<defs>
<linearGradient id="paint0_linear_194_116" x1="-3.5625" y1="46.1562" x2="1053.44" y2="46.1562" gradientUnits="userSpaceOnUse">
<stop stop-color="#001F63"/>
<stop offset="1" stop-color="#00E1EC"/>
</linearGradient>
</defs>
</svg>

<svg xmlns="http://www.w3.org/2000/svg" width="78" height="84" fill="none"><path fill="url(#a)" d="M39.375 0q11.532 0 20.438 5.39 8.625 5.205 13.078 14.25 4.64 9.47 4.64 21.704 0 10.265-3.61 19.406-2.718 6.891-8.109 12.281-10.5 10.453-27.093 10.453-8.578 0-16.266-3.093Q12.14 76.266 6.188 66.375q-3.235-5.343-4.875-12.703A54 54 0 0 1 0 41.719q0-10.36 3.563-19.453Q6.14 15.61 11.39 10.453 21.984 0 39.375 0m-.844 16.5q-7.125 0-12.047 4.875-2.906 2.906-4.265 6.563-2.344 6.374-2.344 13.64 0 7.359 2.39 13.734 1.36 3.657 4.36 6.657 4.781 4.875 12.188 4.875 7.311 0 12-4.781 2.905-2.907 4.359-6.61 2.39-6.375 2.39-13.594 0-7.64-2.39-14.062-2.062-5.672-7.219-8.813Q43.97 16.5 38.531 16.5"/><defs><linearGradient id="a" x1="-3.563" x2="1053.44" y1="46.156" y2="46.156" gradientUnits="userSpaceOnUse"><stop stop-color="#001F63"/><stop offset="1" stop-color="#00E1EC"/></linearGradient></defs></svg>
